X:1
T:Eb major Daniel Read, 1807
T:Isaac Watts, 1709 (Psalm 48)  66. 86. (S.M.)
T:Coventry
T:No Copyright.  Transcribed from The Columbian Harmonist, 1807.
T:No Copyright.  Transcribed from The Columbian Harmonist, 1807.
Z:No Copyright.  Transcribed from The Columbian Harmonist, 1807.
%%score [ 1 2 3 4 ]
L:1/8
M:3/2
K:Eb
V:1 treble nm="Treble" snm="Tr."
V:2 treble nm="Counter" snm="C."
V:3 treble-8 nm="Tenor" snm="T."
V:4 bass nm="Bass" snm="B."
V:1
 G4 | B8 e4 | c8 B4 | B8 A4 | G8 c4 | d8 B4 | B8 z4 | G4 B4 [Bd]4 | [Be]8 e4 | (e4 d4) c4 | B8 f4 | %11
w: 1.~Let|stran- gers|walk a-|round the|ci- ty|where we|dwell,|Com- pass and|view Thine|ho- * ly|ground, and|
 (g3 f) e4 B4 | c4 (B6 A2) | G12 |] %14
w: mark * * the|buil- ding *|well.|
V:2
 E4 | G8 G4 | (F4 E4) D4 | E8 E4 | E8 G4 | (G4 F4) E4 | (E4 D4) z4 | E4 E4 F4 | G8 B4 | B8 G4 | %10
w: 2.~The|or- ders|of * Thy|house, the|wor- ship|of * Thy|court, *|The cheer- ful|songs, the|sol- emn|
 (G4 F4) F4 | (B6 A2) G4 | (A6 G2) F4 | [EG]12 |] %14
w: vows, * and|make * a|fair * re-|port.|
V:3
 B4 | e8 B4 | (A4 G4) F4 | E8 c4 | B8 e4 | (B4 A4) G4 | (G4 F4) z4 | B4 G4 F4 | E8 g4 | %9
w: 3.~How|de- cent|and * how|wise! How|glo- rious|to * be-|hold! *|Be- yond the|pomp that|
 (g4 f4) e4 | (e4 d4) c4 |{c} B8 e4 | e4{e} Td8 | e12 |] %14
w: charms * the|eyes, * and|rites a-|dorned with|gold.|
V:4
 E,4 | E,8 E,4 | A,,8 B,,4 | E,8 E,4 | E,8 E,4 | D,8 E,4 | B,,8 z4 | E,4 E,4 B,,4 | E,8 E,4 | %9
w: 4.~The|God we|wor- ship|now will|guide us|till we|die,|Will be our|God while|
 B,8 B,4 | B,8 A,4 | G,8 E,4 | A,,4 B,,8 | E,12 |] %14
w: here be-|low, and|ours a-|bove the|sky.|

